resources/oc.svg

<svg width="39" height="39" xmlns="http://www.w3.org/2000/svg">
  <g fill="none" fill-rule="evenodd">
    <path
      d="M31.6 19.9c0 2.4-.7 4.7-1.9 6.6l4.9 4.9c2.4-3.2 3.9-7.2 3.9-11.5S37 11.6 34.6 8.4l-4.9 4.9c1.2 1.9 1.9 4.1 1.9 6.6z"
      fill="#fff"/>
    <path
      d="M19.4 32.1c-6.7 0-12.2-5.5-12.2-12.2 0-6.7 5.5-12.2 12.2-12.2 2.5 0 4.7.7 6.6 2l4.9-4.9C27.7 2.4 23.7.9 19.4.9 8.9.9.3 9.4.3 20c0 10.6 8.6 19 19.1 19 4.4 0 8.4-1.5 11.6-3.9l-4.9-4.9c-1.9 1.2-4.2 1.9-6.7 1.9z"
      fill="#fff"/>
  </g>
</svg>

<?xml version="1.0" encoding="UTF-8" standalone="no"?>
<svg width="39px" height="39px" viewBox="0 0 39 39" version="1.1" xmlns="http://www.w3.org/2000/svg" xmlns:xlink="http://www.w3.org/1999/xlink">
    <!-- Generator: sketchtool 3.8.3 (29802) - http://www.bohemiancoding.com/sketch -->
    <title>F41BE6DF-90FC-40C4-B22A-F0CAFA582A6D</title>
    <desc>Created with sketchtool.</desc>
    <defs></defs>
    <g id="home" stroke="none" stroke-width="1" fill="none" fill-rule="evenodd">
        <g id="HOME" transform="translate(-20.000000, -15.000000)">
            <g id="::-loged-in" transform="translate(0.000000, 5.000000)">
                <g id="icon" transform="translate(20.000000, 10.000000)">
                    <g id="::-icon">
                        <path d="M31.6,19.9 C31.6,22.3 30.9,24.6 29.7,26.5 L34.6,31.4 C37,28.2 38.5,24.2 38.5,19.9 C38.5,15.6 37,11.6 34.6,8.4 L29.7,13.3 C30.9,15.2 31.6,17.4 31.6,19.9 L31.6,19.9 Z" id="Shape" fill="#B8D3F4"></path>
                        <path d="M19.4,32.1 C12.7,32.1 7.2,26.6 7.2,19.9 C7.2,13.2 12.7,7.7 19.4,7.7 C21.9,7.7 24.1,8.4 26,9.7 L30.9,4.8 C27.7,2.4 23.7,0.9 19.4,0.9 C8.9,0.9 0.3,9.4 0.3,20 C0.3,30.6 8.9,39 19.4,39 C23.8,39 27.8,37.5 31,35.1 L26.1,30.2 C24.2,31.4 21.9,32.1 19.4,32.1 L19.4,32.1 Z" id="Shape" fill="#46B0ED"></path>
                    </g>
                </g>
            </g>
        </g>
    </g>
</svg>
